X:59
T:Buy A Broom
T:Song, A
S:John Moore's Book 2
Z:Transcribed by Edmund Spriggs 04/2021
%%VWML: Moore1-4494-p44-0
F:http://www.vwml.org/record/Moore2/4494/p44
M:3/8
L:1/8
K:C
c/e/|gg/a/g/f/|ecc|dGG|ecc|gg/a/g/f/|(ec)c|(dG)G|c2:|
|:(dG)G|(ec)c|(dG)G|(ec)c|gg/a/g/f/|(ec)c|(dG)G|c2:|

